X:240
%%etbk:tnset id:75,pos:2,rep:3x,ant:
%%etbk:wsite http://www.thesession.org/tunes/display/273
%%etbk:pldat 2016-07-07T15:45,2014-09-25T17:50,2014-05-06T17:01,2014-02-26T18:30,2014-02-08T13:59,2014-02-05T16:20,2014-02-04T18:51,2013-10-05T15:24,2013-05-15T15:30
T: Castle Jig
T: Sean Ryan's
Z: Piano Box Version by Martin Fleischmann
H: Created 2013-02-19 /  Last Modified 2016-07-07
M: 6/8
L: 1/8
R: jig
K: Ador
|:!5!cEc !4!BAG|!3!AG!1!E !4!D!2!B,!1!G,|!1!~A,3 !5!EDB,|!1!DEG AGE|
!5!cBA BAG|AGE !4!DB,G,|!1!A,2 !4!E EDE|DB,!1!G, !1!A,2 B:|
|:cBA !4!~a3|bag e!1!d!2!B|!1!GBd !5!~g3|GB!4!d cBA|
!3!cBc !4!dcd|!2!ede gab|age !1!d!3!B!1!G|!2!EFG A2 B:|


